svgs/sharp-regular/chart-tree-map.svg

<svg xmlns="http://www.w3.org/2000/svg" viewBox="0 0 512 512"><!--! Font Awesome Pro 6.6.0 by @fontawesome - https://fontawesome.com License - https://fontawesome.com/license (Commercial License) Copyright 2024 Fonticons, Inc. --><path d="M176 80l0 112L48 192 48 80l128 0zM48 32L0 32 0 80 0 192l0 48 48 0 128 0 48 0 0-48 0-112 0-48-48 0L48 32zM176 320l0 112L48 432l0-112 128 0zM48 272L0 272l0 48L0 432l0 48 48 0 128 0 48 0 0-48 0-112 0-48-48 0L48 272zM304 80l160 0 0 32-160 0 0-32zM256 32l0 48 0 32 0 48 48 0 160 0 48 0 0-48 0-32 0-48-48 0L304 32l-48 0zM464 240l0 32-160 0 0-32 160 0zM304 192l-48 0 0 48 0 32 0 48 48 0 160 0 48 0 0-48 0-32 0-48-48 0-160 0zm0 208l160 0 0 32-160 0 0-32zm-48-48l0 48 0 32 0 48 48 0 160 0 48 0 0-48 0-32 0-48-48 0-160 0-48 0z"/></svg>

<svg xmlns="http://www.w3.org/2000/svg" viewBox="0 0 512 512"><!--! Font Awesome Pro 6.4.0 by @fontawesome - https://fontawesome.com License - https://fontawesome.com/license (Commercial License) Copyright 2023 Fonticons, Inc. --><path d="M176 80V192H48V80H176zM48 32H0V80 192v48H48 176h48V192 80 32H176 48zM176 320V432H48V320H176zM48 272H0v48V432v48H48 176h48V432 320 272H176 48zM304 80H464v32H304V80zM256 32V80v32 48h48H464h48V112 80 32H464 304 256zM464 240v32H304V240H464zM304 192H256v48 32 48h48H464h48V272 240 192H464 304zm0 208H464v32H304V400zm-48-48v48 32 48h48H464h48V432 400 352H464 304 256z"/></svg>
